public/images/mac.svg

<svg fill="none" height="533" viewBox="0 0 936 533" width="936" xmlns="http://www.w3.org/2000/svg" xmlns:xlink="http://www.w3.org/1999/xlink"><linearGradient id="a" gradientUnits="userSpaceOnUse" x1="112.358" x2="834.545" y1="2" y2="488.974"><stop offset="0" stop-color="#333"/><stop offset=".53125" stop-color="#596368"/><stop offset="1" stop-color="#333"/></linearGradient><linearGradient id="b" gradientUnits="userSpaceOnUse" x1="467.951" x2="467.951" y1="2" y2="519.288"><stop offset=".6875" stop-opacity=".4"/><stop offset=".883584" stop-color="#333" stop-opacity=".643"/><stop offset="1" stop-opacity=".94"/></linearGradient><linearGradient id="c" gradientUnits="userSpaceOnUse" x1="935.901" x2="0" y1="498.509" y2="498.508"><stop offset="0" stop-color="#212121"/><stop offset=".5" stop-color="#555"/><stop offset="1" stop-color="#212121"/></linearGradient><linearGradient id="d" gradientUnits="userSpaceOnUse" x1="467.95" x2="467.95" y1="498.508" y2="532.012"><stop offset="0" stop-color="#666"/><stop offset=".5" stop-color="#666"/><stop offset=".541667" stop-opacity=".5"/><stop offset="1"/></linearGradient><linearGradient id="e" gradientUnits="userSpaceOnUse" x1="467.95" x2="467.95" y1="500.337" y2="516.207"><stop offset="0" stop-color="#999"/><stop offset=".151042" stop-color="#777"/><stop offset=".609375" stop-color="#444"/><stop offset=".822917" stop-color="#333"/><stop offset="1" stop-color="#222"/></linearGradient><linearGradient id="f" gradientUnits="userSpaceOnUse" x1="397.36" x2="538.54" y1="500.337" y2="500.337"><stop offset="0" stop-color="#333"/><stop offset=".130208" stop-color="#333" stop-opacity=".42"/><stop offset=".932292" stop-color="#333" stop-opacity=".118947"/><stop offset="1" stop-color="#333" stop-opacity=".83"/></linearGradient><path d="m129.365 1.29136c-9.784 0-17.716 7.93168-17.716 17.71584v469.2728c0 9.784 7.932 17.716 17.716 17.716h677.172c9.784 0 17.716-7.932 17.716-17.716v-469.2728c0-9.78417-7.932-17.71584-17.716-17.71584z" fill="url(#a)"/><path d="m129.365 1.29136c-9.784 0-17.716 7.93168-17.716 17.71584v469.2728c0 9.784 7.932 17.716 17.716 17.716h677.172c9.784 0 17.716-7.932 17.716-17.716v-469.2728c0-9.78417-7.932-17.71584-17.716-17.71584z" fill="url(#b)"/><path d="m129.365 1.29136c-9.784 0-17.716 7.93168-17.716 17.71584v469.2728c0 9.784 7.932 17.716 17.716 17.716h677.172c9.784 0 17.716-7.932 17.716-17.716v-469.2728c0-9.78417-7.932-17.71584-17.716-17.71584z" stroke="#333" stroke-width="1.41727"/><path d="m809.663 472.152h.709v-.708-448.5972c0-5.0878-4.125-9.2122-9.213-9.2122h-666.418c-5.088 0-9.213 4.1245-9.213 9.2122v448.5972.708h.709z" fill="#000" stroke="#444" stroke-width="1.41727"/><path d="m0 498.508h935.901v16.815c0 3.725-2.421 7.016-5.994 8.066-4.666 1.371-11.165 3.208-16.149 4.331-9.775 2.205-48.69 4.271-48.69 4.271h-787.1171c-.7783 0-1.5352.007-2.3134.013-6.1892.048-36.0576.039-55.3844-4.31-4.4042-.991-10.0919-2.62-14.31815-3.884-3.5453-1.061-5.93495-4.337-5.93495-8.038z" fill="url(#c)"/><path d="m0 498.508h935.901v16.815c0 3.725-2.421 7.016-5.994 8.066-4.666 1.371-11.165 3.208-16.149 4.331-9.775 2.205-48.69 4.271-48.69 4.271h-787.1171c-.7783 0-1.5352.007-2.3134.013-6.1892.048-36.0576.039-55.3844-4.31-4.4042-.991-10.0919-2.62-14.31815-3.884-3.5453-1.061-5.93495-4.337-5.93495-8.038z" fill="url(#d)" fill-opacity=".3"/><path d="m397.36 500.337h141.18c0 8.765-7.106 15.87-15.87 15.87h-109.44c-8.765 0-15.87-7.105-15.87-15.87z" fill="#c4c4c4"/><path d="m397.36 500.337h141.18c0 8.765-7.106 15.87-15.87 15.87h-109.44c-8.765 0-15.87-7.105-15.87-15.87z" fill="url(#e)"/><path d="m397.36 500.337h141.18c0 8.765-7.106 15.87-15.87 15.87h-109.44c-8.765 0-15.87-7.105-15.87-15.87z" fill="url(#f)"/></svg>

<svg width="936" height="533" viewBox="0 0 936 533" fill="none" xmlns="http://www.w3.org/2000/svg">
<path d="M129.365 1.29136C119.581 1.29136 111.649 9.22304 111.649 19.0072L111.649 488.28C111.649 498.064 119.581 505.996 129.365 505.996L806.537 505.996C816.321 505.996 824.253 498.064 824.253 488.28V19.0072C824.253 9.22303 816.321 1.29136 806.537 1.29136L129.365 1.29136Z" fill="url(#paint0_linear_1_76)"/>
<path d="M129.365 1.29136C119.581 1.29136 111.649 9.22304 111.649 19.0072L111.649 488.28C111.649 498.064 119.581 505.996 129.365 505.996L806.537 505.996C816.321 505.996 824.253 498.064 824.253 488.28V19.0072C824.253 9.22303 816.321 1.29136 806.537 1.29136L129.365 1.29136Z" fill="url(#paint1_linear_1_76)"/>
<path d="M129.365 1.29136C119.581 1.29136 111.649 9.22304 111.649 19.0072L111.649 488.28C111.649 498.064 119.581 505.996 129.365 505.996L806.537 505.996C816.321 505.996 824.253 498.064 824.253 488.28V19.0072C824.253 9.22303 816.321 1.29136 806.537 1.29136L129.365 1.29136Z" stroke="#333333" stroke-width="1.41727"/>
<path d="M809.663 472.152H810.372V471.444V22.8468C810.372 17.759 806.247 13.6346 801.159 13.6346L134.741 13.6346C129.653 13.6346 125.528 17.7591 125.528 22.8468L125.528 471.444V472.152H126.237L809.663 472.152Z" fill="black" stroke="#444444" stroke-width="1.41727"/>
<path d="M0 498.508L935.901 498.508V515.323C935.901 519.048 933.48 522.339 929.907 523.389C925.241 524.76 918.742 526.597 913.758 527.72C903.983 529.925 865.068 531.991 865.068 531.991L77.9509 531.991C77.1726 531.991 76.4157 531.998 75.6375 532.004C69.4483 532.052 39.5799 532.043 20.2531 527.694C15.8489 526.703 10.1612 525.074 5.93495 523.81C2.38965 522.749 0 519.473 0 515.772L0 498.508Z" fill="url(#paint2_linear_1_76)"/>
<path d="M0 498.508L935.901 498.508V515.323C935.901 519.048 933.48 522.339 929.907 523.389C925.241 524.76 918.742 526.597 913.758 527.72C903.983 529.925 865.068 531.991 865.068 531.991L77.9509 531.991C77.1726 531.991 76.4157 531.998 75.6375 532.004C69.4483 532.052 39.5799 532.043 20.2531 527.694C15.8489 526.703 10.1612 525.074 5.93495 523.81C2.38965 522.749 0 519.473 0 515.772L0 498.508Z" fill="url(#paint3_linear_1_76)" fill-opacity="0.3"/>
<path d="M397.36 500.337H538.54C538.54 509.102 531.434 516.207 522.67 516.207H413.23C404.465 516.207 397.36 509.102 397.36 500.337Z" fill="#C4C4C4"/>
<path d="M397.36 500.337H538.54C538.54 509.102 531.434 516.207 522.67 516.207H413.23C404.465 516.207 397.36 509.102 397.36 500.337Z" fill="url(#paint4_linear_1_76)"/>
<path d="M397.36 500.337H538.54C538.54 509.102 531.434 516.207 522.67 516.207H413.23C404.465 516.207 397.36 509.102 397.36 500.337Z" fill="url(#paint5_linear_1_76)"/>
<defs>
<linearGradient id="paint0_linear_1_76" x1="112.358" y1="2" x2="834.545" y2="488.974" gradientUnits="userSpaceOnUse">
<stop stop-color="#333333"/>
<stop offset="0.53125" stop-color="#596368"/>
<stop offset="1" stop-color="#333333"/>
</linearGradient>
<linearGradient id="paint1_linear_1_76" x1="467.951" y1="2" x2="467.951" y2="519.288" gradientUnits="userSpaceOnUse">
<stop offset="0.6875" stop-opacity="0.4"/>
<stop offset="0.883584" stop-color="#333333" stop-opacity="0.643"/>
<stop offset="1" stop-opacity="0.94"/>
</linearGradient>
<linearGradient id="paint2_linear_1_76" x1="935.901" y1="498.509" x2="0" y2="498.508" gradientUnits="userSpaceOnUse">
<stop stop-color="#212121"/>
<stop offset="0.5" stop-color="#555555"/>
<stop offset="1" stop-color="#212121"/>
</linearGradient>
<linearGradient id="paint3_linear_1_76" x1="467.95" y1="498.508" x2="467.95" y2="532.012" gradientUnits="userSpaceOnUse">
<stop stop-color="#666666"/>
<stop offset="0.5" stop-color="#666666"/>
<stop offset="0.541667" stop-opacity="0.5"/>
<stop offset="1"/>
</linearGradient>
<linearGradient id="paint4_linear_1_76" x1="467.95" y1="500.337" x2="467.95" y2="516.207" gradientUnits="userSpaceOnUse">
<stop stop-color="#999999"/>
<stop offset="0.151042" stop-color="#777777"/>
<stop offset="0.609375" stop-color="#444444"/>
<stop offset="0.822917" stop-color="#333333"/>
<stop offset="1" stop-color="#222222"/>
</linearGradient>
<linearGradient id="paint5_linear_1_76" x1="397.36" y1="500.337" x2="538.54" y2="500.337" gradientUnits="userSpaceOnUse">
<stop stop-color="#333333"/>
<stop offset="0.130208" stop-color="#333333" stop-opacity="0.42"/>
<stop offset="0.932292" stop-color="#333333" stop-opacity="0.118947"/>
<stop offset="1" stop-color="#333333" stop-opacity="0.83"/>
</linearGradient>
</defs>
</svg>
